images/cotacao/Pig.svg

<?xml version="1.0" encoding="UTF-8"?> <!-- Generator: Adobe Illustrator 23.0.0, SVG Export Plug-In . SVG Version: 6.00 Build 0) --> <svg xmlns="http://www.w3.org/2000/svg" xmlns:xlink="http://www.w3.org/1999/xlink" id="Layer_1" x="0px" y="0px" viewBox="0 0 374.3 373.3" style="enable-background:new 0 0 374.3 373.3;" xml:space="preserve"> <g> <path d="M14.5,185.7l78.7,49.2L82,296.7c-0.3,1.7,0.2,3.5,1.3,4.8c1.1,1.3,2.8,2.1,4.5,2.1h23.4c2.1,0,4.1-1.2,5.1-3l23.3-42 c1.1-2,2.1-4.1,2.9-6.3c16.2,2.7,32.7,4.1,49.1,4.1c27,0,53.8-3.6,79.9-10.8c5.4,3.1,11.2,5.3,17.3,6.4l20.5,3.7l-5.2,41.3 c-0.2,1.7,0.3,3.3,1.4,4.6c1.1,1.3,2.7,2,4.4,2h29.2c2.7,0,5-1.8,5.7-4.4l17.5-70.2c0.6-2.4-0.4-4.9-2.4-6.3l-14.9-10v-67 c0-42-34.1-76-76-76H52.7c-3.2,0-5.8,2.6-5.8,5.8c0,12.2,5.5,23.7,14.9,31.4c-1.5,2.5-2.8,5.1-4,7.7l-7,19.4 c-1.4,4-4.9,6.9-9.1,7.5l-25,4.2c-2.8,0.5-4.9,2.9-4.9,5.8v29.2C11.8,182.8,12.8,184.7,14.5,185.7z M23.5,156.5l20.1-3.3 c8.3-1.4,15.2-7.2,18.1-15.1l6.9-19c1-2.1,2.1-4.2,3.3-6.2l0.7,0.3c11.4,5.1,24.5,4.2,35-2.5c0.2-0.1,0.4-0.3,0.6-0.4l2.1-1.7 c2.5-2,2.9-5.7,0.9-8.2l0,0c-2-2.5-5.7-2.9-8.2-0.9l-1.9,1.5c-7.2,4.4-16.1,5-23.8,1.5l-2.5-1.1c-8.1-3.8-14-11.2-15.7-20h64.1v0.1 c1.3-0.1,2.6-0.1,3.9-0.1H269c35.5,0,64.3,28.8,64.3,64.3l0,8.5c0,4.7-3.5,8.8-8.2,9.1c-5.1,0.3-9.4-3.7-9.4-8.8 c0-11.3-9.2-20.5-20.5-20.5h-2.9c-3.2,0-5.8,2.6-5.8,5.8v0c0,3.2,2.6,5.8,5.8,5.8h3.1c4.8,0,8.5,3.9,8.5,8.8 c0,11.3,9.2,20.5,20.5,20.5c3,0,6-0.7,8.8-2.1v43c0,2,1,3.8,2.6,4.9l14.1,9.4l-15.4,61.7h-18l5-40.2c0.4-3.1-1.7-5.9-4.8-6.5 l-25.9-4.7c-17.8-3.2-31.1-17.7-33.3-35.2c-0.4-2.9-2.9-5-5.8-5h0c-3.5,0-6.2,3.1-5.8,6.6c1.4,11,6.3,21.4,14,29.6 c-37.5,9.1-76.4,10.6-114.5,4.5c0.4-2.6,0.6-5.2,0.7-7.9v-28.8c0-3.2-2.6-5.8-5.8-5.8l0,0c-3.2,0-5.8,2.6-5.8,5.8V233 c0,7-1.8,13.8-5.2,19.9l-21.7,39H94.8l10.4-57.4c0.1-0.3,0.1-0.7,0.1-1v-29.2c0-3.2-2.6-5.8-5.8-5.8h0c-3.2,0-5.8,2.6-5.8,5.8v17.2 l-70.2-43.9V156.5z"></path> </g> </svg>

<svg width="375" height="374" viewBox="0 0 375 374" fill="none" xmlns="http://www.w3.org/2000/svg">
<path d="M14.5 185.7L93.2 234.9L82 296.7C81.7 298.4 82.2 300.2 83.3 301.5C84.4 302.8 86.1 303.6 87.8 303.6H111.2C113.3 303.6 115.3 302.4 116.3 300.6L139.6 258.6C140.7 256.6 141.7 254.5 142.5 252.3C158.7 255 175.2 256.4 191.6 256.4C218.6 256.4 245.4 252.8 271.5 245.6C276.9 248.7 282.7 250.9 288.8 252L309.3 255.7L304.1 297C303.9 298.7 304.4 300.3 305.5 301.6C306.6 302.9 308.2 303.6 309.9 303.6H339.1C341.8 303.6 344.1 301.8 344.8 299.2L362.3 229C362.9 226.6 361.9 224.1 359.9 222.7L345 212.7V145.7C345 103.7 310.9 69.7 269 69.7H52.7001C49.5001 69.7 46.9001 72.3 46.9001 75.5C46.9001 87.7 52.4 99.2 61.8 106.9C60.3 109.4 59 112 57.8 114.6L50.8 134C49.4 138 45.9001 140.9 41.7001 141.5L16.7 145.7C13.9 146.2 11.8 148.6 11.8 151.5V180.7C11.8 182.8 12.8 184.7 14.5 185.7ZM23.5 156.5L43.6 153.2C51.9 151.8 58.8001 146 61.7001 138.1L68.6 119.1C69.6 117 70.7001 114.9 71.9001 112.9L72.6 113.2C84 118.3 97.1 117.4 107.6 110.7C107.8 110.6 108 110.4 108.2 110.3L110.3 108.6C112.8 106.6 113.2 102.9 111.2 100.4C109.2 97.9 105.5 97.5 103 99.5L101.1 101C93.9 105.4 85 106 77.3 102.5L74.8001 101.4C66.7001 97.6 60.8 90.2 59.1 81.4H123.2V81.5C124.5 81.4 125.8 81.4 127.1 81.4H269C304.5 81.4 333.3 110.2 333.3 145.7V154.2C333.3 158.9 329.8 163 325.1 163.3C320 163.6 315.7 159.6 315.7 154.5C315.7 143.2 306.5 134 295.2 134H292.3C289.1 134 286.5 136.6 286.5 139.8C286.5 143 289.1 145.6 292.3 145.6H295.4C300.2 145.6 303.9 149.5 303.9 154.4C303.9 165.7 313.1 174.9 324.4 174.9C327.4 174.9 330.4 174.2 333.2 172.8V215.8C333.2 217.8 334.2 219.6 335.8 220.7L349.9 230.1L334.5 291.8H316.5L321.5 251.6C321.9 248.5 319.8 245.7 316.7 245.1L290.8 240.4C273 237.2 259.7 222.7 257.5 205.2C257.1 202.3 254.6 200.2 251.7 200.2C248.2 200.2 245.5 203.3 245.9 206.8C247.3 217.8 252.2 228.2 259.9 236.4C222.4 245.5 183.5 247 145.4 240.9C145.8 238.3 146 235.7 146.1 233V204.2C146.1 201 143.5 198.4 140.3 198.4C137.1 198.4 134.5 201 134.5 204.2V233C134.5 240 132.7 246.8 129.3 252.9L107.6 291.9H94.8L105.2 234.5C105.3 234.2 105.3 233.8 105.3 233.5V204.3C105.3 201.1 102.7 198.5 99.5 198.5C96.3 198.5 93.7 201.1 93.7 204.3V221.5L23.5 177.6V156.5Z" fill="black"/>
</svg>
